X:1
T:Sechs Lieder von Novalis, Op.4
T:Bergmannslied
T:4. Bergmannslied
T:Louise Reichardt
T:Novalis (Georg Friedrich Freiherr von Hardenberg)
T:Sechs Lieder von Novalis, Op.4
T:OpenScore (CC0)
T:OpenScore (CC0)
C:Louise Reichardt
Z:Novalis (Georg Friedrich Freiherr von Hardenberg)
Z:OpenScore (CC0)
%%score 1 { 2 | ( 3 4 ) }
L:1/8
M:4/4
K:Ab
V:1 treble nm="Voice"
V:2 treble nm="Piano"
V:3 bass 
V:4 bass 
V:1
"^Geheimnisvoll" C2 | F2 G2 A2 =E2 | F2 C2 D3 C | C3 B, A, G, A, F, | C4 C2 C2 | F2 G2 A2 F2 | %6
w: Ich|ken- ne wo ein|fes- tes Schloss ein|stil- ler Kö- nig wohnt da-|rin- nen mit|ein- nem wun- der-|
w: ||||||
w: Sein|Schloss ist alt und|wun- der- bar es|sank her- auf aus tief- en|Meer- en Stand|fest und steht noch|
 B2 A2 G2 E2 | C3 B, A, G, A, F, | B,4 E2 G2 | A2 G2 F2 E2 | =D2 E2 F2 G2 | B2 A2 G2 F2 | %12
w: lich- en Tross doch|steigt er nie von sei- nen|Zin- nen. Ver-|bor- gen ift sein|Lust- ge- mach und|un- sicht- ba- re|
w: ||||||
w: imm- er dar die|Flucht zum Him- mel zu ver-|währ- en. Von|in- nen schlingt ein|heim- lich Band sich|um des Reich- es|
 =E2 F2 G2 C C | F2 A2 c2 d2 | =E2 c2 A2 =E E | F2 D2 C2 F2 | F2 =E2 F2 z2 | z8 | z8 | z8 | %20
w: Wäch- ter laus- chen nur|wohl- be- kann- te|Quel- len raus- chen zu|ihm her- ab vom|bun- ten Dach.||||
w: ||||||||
w: Un- ter- tha- nen und|Wol- ken wehn wie|Sie- ges- fahr- en her-|un- ter von der|Fel- sen Wand.||||
 z4 z2 |] %21
w: |
w: |
w: |
V:2
 !wedge!C2 | !wedge!F2 !wedge!G2 !wedge!A2 !wedge!=E2 | !wedge!F2 !wedge!C2 !wedge!D3 !wedge!C | %3
 C3 B, A, G, A, F, | C4 !wedge!C2 !wedge!C2 | !wedge!F2 !wedge!G2 !wedge!A2 !wedge!F2 | %6
 [=DFB]2 [DFA]2 [B,EG]2 [B,E]2 | [CE]4 [CE]4 | E2 =D2 E2"_legato" [_DG]E | %9
 [CA]E [B,G]E [A,F]B, [G,E]B, | [A,=D]B, [G,E]B, [A,F]B, [_DG]E | [CB]=E [CA]F [B,G]C [A,F]C | %12
 [B,=E]C [A,F]C [=EG]2 CC | F2 A2 c2 d2 | =E2 c2 A2 =E E | F2 (D2 C2) [A,CF]2 | %16
 [A,CF]2 [A,C=E]2 [A,CF]3 (C | F2) !wedge!A2 !wedge!c2 !wedge!d2 | %18
 (!wedge!=E2 !wedge!c)!wedge!c A2 EE | F2 (D2 C2)!f! F2 | [A,CF]2 [G,B,=E]2 [A,CF]2 |] %21
V:3
!p! !wedge!C,2 | !wedge!F,2 !wedge!G,2 !wedge!A,2 !wedge!=E,2 | %2
 !wedge!F,2 !wedge!C,2 !wedge!D,3 !wedge!C, | C,3 B,, A,, G,, A,, F,, | C,4 !wedge!C,2 !wedge!C,2 | %5
 !wedge!F,2 !wedge!G,2 !wedge!A,2 !wedge!F,2 | B,,2 B,,2 E,2 G,,2 | A,4 A,4 | %8
 [G,B,]2 [A,B,]2 [G,B,]2 x2 | [E,,E,]8 | [E,,E,]8 | [C,,C,]8 | [C,,C,]4 [C,,C,]2 z C, | %13
 F,2 A,2 C2 D2 | =E,2 C2 A,2 =E, E, | F,2 (D,2 C,2) C,2 | C,2 C,2 [F,,F,]3 (C, | %17
 F,2) !wedge!A,2 !wedge!C2 !wedge!D2 | (!wedge!=E,2 !wedge!C)!wedge!C A,2 E,E, | F,2 (D,2 C,2) z2 | %20
 C,2 C,2 F,2 |] %21
V:4
 x2 | x8 | x8 | x8 | x8 | x8 | x8 | A,,4 F,,4 | B,,2 B,,2 [E,,E,]2 z2 | x8 | x8 | x8 | x8 | x8 | %14
 x8 | x8 | x8 | x8 | x8 | x8 | x6 |] %21

